src/telerik-icons/solid/cells-merge.svg

<?xml version="1.0" encoding="utf-8"?>
<svg xmlns="http://www.w3.org/2000/svg" width="512" height="512" viewBox="0 0 512 512">
  <path d="M32 32v448h416V32H32zm160 32h96v64h-96V64zM64 64h96v64H64V64zm96 384H64v-64h96v64zm128 0h-96v-64h96v64zm128 0h-96v-64h96v64zm0-96H64V160h352v192zm0-224h-96V64h96v64z"/>
</svg>

<?xml version="1.0" encoding="utf-8"?>
<!-- Generator: Adobe Illustrator 19.2.1, SVG Export Plug-In . SVG Version: 6.00 Build 0)  -->
<svg xmlns="http://www.w3.org/2000/svg" width="512" height="512" viewBox="0 0 512 512">
<path d="M32,32v448h416V32H32z M192,64h96v64h-96V64z M64,64h96v64H64V64z M160,448H64v-64h96V448z M288,448h-96v-64h96V448z
	 M416,448h-96v-64h96V448z M416,352H64V160h352V352z M416,128h-96V64h96V128z" />
</svg>
